X:1
T:Hattie (Stansberry), CM
T:Hattie (Stansberry), CM
T:J. B. Stansberry, 1898
T:Public Domain Courtesy of the Cyber Hymnal™
C:J. B. Stansberry, 1898
Z:Public Domain
Z:Courtesy of the Cyber Hymnal™
%%score ( 1 2 ) ( 3 4 )
L:1/8
Q:1/4=130
M:3/4
K:Ab
V:1 treble 
V:2 treble 
V:3 bass 
V:4 bass 
V:1
 [CE]2 | [CE]4 [EA]2 | [Ac]4 [EA]2 | [FB]2 [FA]2 [DF]2 | [CE]4 [EA]2 | [EG]4 [EG]2 | %6
 [EA]4 ([GB][Ac]) | [GB]4 ([Ac][Bd]) | [ce]4 [Ac]2 | [EA]4 [Ac]2 | [FB]4 [=Ac]2 | [Bd]4 [FB]2 | %12
 [EA]4 (GA) | [Ac]4 [GB]2 | [EA]4 z2 |] %15
V:2
 x2 | x6 | x6 | x6 | x6 | x6 | x6 | x6 | x6 | x6 | x6 | x6 | x4 E2 | x6 | x6 |] %15
V:3
 [A,,A,]2 | [A,,A,]4 [A,,C]2 | [A,,E]4 [A,,C]2 | [D,D]4 [D,A,]2 | [A,,A,]4 [A,,C]2 | %5
 [E,B,]4 [E,B,]2 | [E,C]4 [E,C]2 | [E,E]4 [A,,E]2 | [A,,A,]4 [A,,E]2 | [A,,C]4 [A,,E]2 | %10
 [D,D]4 [C,E]2 | [B,,F]4 [D,D]2 | [E,C]4 (B,C) | [E,E]4 [E,D]2 | [A,,C]4 z2 |] %15
V:4
 x2 | x6 | x6 | x6 | x6 | x6 | x6 | x6 | x6 | x6 | x6 | x6 | x4 E,2 | x6 | x6 |] %15

